icons/codepen-fill.svg

<svg xmlns="http://www.w3.org/2000/svg" width="24" height="24" fill="none"><g clip-path="url(#a)"><g><path fill="#121212" d="M12 10.202L9.303 12L12 13.798L14.697 12L12 10.202ZM16.5 10.798L19.197 9.00003L13 4.86903V8.46503L16.5 10.798ZM20 10.868L18.303 12L20 13.131V10.87V10.868ZM16.5 13.202L13 15.535V19.131L19.197 15L16.5 13.202ZM11 8.46503V4.86903L4.803 9.00003L7.5 10.798L11 8.46503ZM4.803 15L11 19.131V15.535L7.5 13.202L4.803 15ZM5.697 12L4 10.869V13.131L5.697 12ZM2 9.00003C1.99998 8.83544 2.04058 8.67338 2.11821 8.52824C2.19583 8.38311 2.30808 8.25938 2.445 8.16803L11.445 2.16803C11.6093 2.05839 11.8025 1.99988 12 1.99988C12.1975 1.99988 12.3907 2.05839 12.555 2.16803L21.555 8.16803C21.6919 8.25938 21.8042 8.38311 21.8818 8.52824C21.9594 8.67338 22 8.83544 22 9.00003V15C22 15.1646 21.9594 15.3267 21.8818 15.4718C21.8042 15.6169 21.6919 15.7407 21.555 15.832L12.555 21.832C12.3907 21.9417 12.1975 22.0002 12 22.0002C11.8025 22.0002 11.6093 21.9417 11.445 21.832L2.445 15.832C2.30808 15.7407 2.19583 15.6169 2.11821 15.4718C2.04058 15.3267 1.99998 15.1646 2 15V9.00003Z"/></g></g><defs><clipPath id="a"><rect width="24" height="24" fill="white"/></clipPath></defs></svg>

<svg width="24" height="24" fill="none" xmlns="http://www.w3.org/2000/svg"><g clip-path="url(#a)"><path d="M12 10.202 9.303 12 12 13.798 14.697 12 12 10.202Zm4.5.596L19.197 9 13 4.869v3.596l3.5 2.333Zm3.5.07L18.303 12 20 13.131v-2.263Zm-3.5 2.334L13 15.535v3.596L19.197 15 16.5 13.202ZM11 8.465V4.869L4.803 9 7.5 10.798 11 8.465ZM4.803 15 11 19.131v-3.596l-3.5-2.333L4.803 15Zm.894-3L4 10.869v2.262L5.697 12ZM2 9a1 1 0 0 1 .445-.832l9-6a1 1 0 0 1 1.11 0l9 6A1 1 0 0 1 22 9v6a1 1 0 0 1-.445.832l-9 6a1 1 0 0 1-1.11 0l-9-6A1 1 0 0 1 2 15V9Z" /></g><defs><clipPath id="a"><path fill="#fff" d="M0 0h24v24H0z"/></clipPath></defs></svg>
